packages/components/icon/src/assets/icons/clear.svg

<svg width="24" height="24" viewBox="0 0 24 24" fill="none" xmlns="http://www.w3.org/2000/svg">
<path fill-rule="evenodd" clip-rule="evenodd" d="M12 4C7.58172 4 4 7.58172 4 12C4 16.4183 7.58172 20 12 20C16.4183 20 20 16.4183 20 12C20 7.58172 16.4183 4 12 4ZM8.08755 9.54715C7.69702 9.15663 7.69702 8.52347 8.08755 8.13294L8.13174 8.08875C8.52227 7.69822 9.15543 7.69822 9.54596 8.08875L11.9975 10.5403L14.4491 8.08869C14.8397 7.69816 15.4728 7.69816 15.8634 8.08869L15.9076 8.13288C16.2981 8.52341 16.2981 9.15657 15.9076 9.5471L13.4559 11.9987L15.9099 14.4527C16.3004 14.8432 16.3004 15.4764 15.9099 15.8669L15.8657 15.9111C15.4752 16.3016 14.842 16.3016 14.4515 15.9111L11.9975 13.4571L9.54359 15.9111C9.15307 16.3016 8.5199 16.3016 8.12938 15.9111L8.08518 15.8669C7.69466 15.4763 7.69466 14.8432 8.08518 14.4527L10.5391 11.9987L8.08755 9.54715Z" fill="currentColor"/>
</svg>

<svg viewBox="0 0 24 24" fill="none" xmlns="http://www.w3.org/2000/svg"><path fill-rule="evenodd" clip-rule="evenodd" d="M12 4a8 8 0 1 0 0 16 8 8 0 0 0 0-16ZM8.088 9.547a1 1 0 0 1 0-1.414l.044-.044a1 1 0 0 1 1.414 0l2.452 2.451 2.451-2.451a1 1 0 0 1 1.414 0l.045.044a1 1 0 0 1 0 1.414L13.456 12l2.454 2.454a1 1 0 0 1 0 1.414l-.044.044a1 1 0 0 1-1.415 0l-2.454-2.454-2.453 2.454a1 1 0 0 1-1.415 0l-.044-.044a1 1 0 0 1 0-1.414L10.539 12 8.088 9.548Z" fill="currentColor"/></svg>
